X:3
T:Ballydesmond No. 2
Z: id:dc-polka-2
M:2/4
L:1/8
K:A Dorian
cd/c/ Bc/B/|AB/A/ G>A|B/c/d ed|g3 d|!
ea ge|dB GA/B/|ce dB|A2 A2:|!
ea ag/e/|dg gd|ea ab|g>f gd|!
ea ge|dB GA/B/|ce dB|A2 A2:|!

